!!!OTL: Die Nonne (18f), S.81
!!!id: T0132
**kern
*clefG2
*k[f#]
*G:
{4d
=1
4.g
8d
4B
4d
=2
4g
4b
4b}
=3
{4dd
=4
4.a
8g
4f#
4g
=5
4a
8d
8d
4d}
=6
{8g
8a
=7
4b
4b
4b
4b
=8
4b
4dd
4dd}
=9
{8cc
8b
=10
4a
4cc
4cc
4cc
=11
4cc
4ee
4dd}
=12
{8dd
8cc
=13
4b
4b
4a
4a
=14
2b}
4r
==
*-
!!!minrhy: 8
!!!meters: 4/4 ]  ZZ[5
!!!cut: Die Nonne (18f), S.81
!!!reg: Luxemburg
!!!trd: Singendes Volk, Esch-Alzette 1937 posth.
!!!rhy1: X_  X_.XX_X_  X_X_X_
!!!rhy2: X_  X_.XX_X_  X_XXX_
!!!key: T0132  08  G 4/4 ]  ZZ[5
!!!mod: HEPTATONIK IONISCH]  AMBITUS[11
!!!kad: 3-5553
!!!akz: 1-313_2-72-5_3335_2445_323_
!!!fot: 'a__b__c__d__e__
!!!for: 'a__b__c__c__cw_
!!!fok: '~a_Sd_/__Va_\__
!! PHRAS[AUFTAKTIG]
!!!fkt: Liebeslieder
!!!bem: Verfasser: Lebrecht Dreves, 1836
!! THILL, Mathias:
!! PR[29] 2K[5] 2G[10] 3K[15] 3G[5] 4A[0] 4Ü[0] 5A[0] 6K[0] 6G[0]
!! 7K[0] 7G[0] 8A[0] MEHR[0] SI[36] ABS[59] SR[15] SP[20]
!! ST[12] 2k[5] 2g[10] 3k[15] 3g[5] 4d[0] 4ü[0] 5d[0] 6k[0] 6g[0]
!! 7k[0] 7g[0] 8d[0] mehr[0] si[36] dm[0] sr[15] sp[20]
!! 1F[76] 2F[24] 3F[0] 4F[0] LF[0] 2P[0] 3P[0] 4P[0] TRI[0] DF[2] AB[62]
!! TF[0] U3K[0] U3[0] U4[0] U4Ü[0] U5[0] U6K[0] U6[0] U7K[0] U7[0]
!! N1[15] N2K[0] N2[15] N3K[0] N3[35] N4[15] N4Ü[0] N5[15] N6K[0] N6[5]
!!!n7k: 0] N7[0] O1[0] O2K[0] O2[0] O3K[0] O3[0] HÖ[0
